public/img/assets/icons/clear-day_sun.svg

<svg width="120" height="120" viewBox="0 0 120 120" fill="none" xmlns="http://www.w3.org/2000/svg">
<path d="M55.6 18C55.6 16.8954 56.4954 16 57.6 16H62.4C63.5046 16 64.4 16.8954 64.4 18V27.1938C64.4 28.2984 63.5046 29.1938 62.4 29.1938H57.6C56.4954 29.1938 55.6 28.2984 55.6 27.1938V18ZM16 57.5815C16 56.477 16.8954 55.5815 18 55.5815H27.2C28.3046 55.5815 29.2 56.477 29.2 57.5815V62.3774C29.2 63.482 28.3046 64.3774 27.2 64.3774H18C16.8954 64.3774 16 63.482 16 62.3774V57.5815ZM90.8 57.5815C90.8 56.477 91.6954 55.5815 92.8 55.5815H102C103.105 55.5815 104 56.477 104 57.5815V62.3774C104 63.482 103.105 64.3774 102 64.3774H92.8C91.6954 64.3774 90.8 63.482 90.8 62.3774V57.5815ZM80.08 36.5192C79.2985 35.7381 79.2985 34.4713 80.08 33.6901L86.5877 27.1855C87.3687 26.4049 88.6345 26.4049 89.4155 27.1855L92.808 30.5764C93.5895 31.3575 93.5895 32.6244 92.808 33.4055L86.3003 39.9102C85.5193 40.6908 84.2535 40.6908 83.4725 39.9102L80.08 36.5192ZM36.5278 39.9142C35.7467 40.695 34.4806 40.6948 33.6997 39.9139L27.1962 33.4104C26.4149 32.629 26.4152 31.362 27.1971 30.5811L30.5927 27.1895C31.374 26.4091 32.6399 26.4097 33.4206 27.1907L39.9213 33.6945C40.7022 34.4758 40.7019 35.7421 39.9207 36.523L36.5278 39.9142Z" fill="#F7D056"/>
<path d="M55.6 102C55.6 103.105 56.4954 104 57.6 104H62.4C63.5046 104 64.4 103.105 64.4 102V92.8062C64.4 91.7016 63.5046 90.8062 62.4 90.8062H57.6C56.4954 90.8062 55.6 91.7016 55.6 92.8062V102ZM16 62.4185C16 63.523 16.8954 64.4185 18 64.4185H27.2C28.3046 64.4185 29.2 63.523 29.2 62.4185V57.6226C29.2 56.518 28.3046 55.6226 27.2 55.6226H18C16.8954 55.6226 16 56.518 16 57.6226V62.4185ZM90.8 62.4185C90.8 63.523 91.6954 64.4185 92.8 64.4185H102C103.105 64.4185 104 63.523 104 62.4185V57.6226C104 56.518 103.105 55.6226 102 55.6226H92.8C91.6954 55.6226 90.8 56.518 90.8 57.6226V62.4185ZM80.08 83.4808C79.2985 84.2619 79.2985 85.5287 80.08 86.3099L86.5877 92.8145C87.3687 93.5951 88.6345 93.5951 89.4155 92.8145L92.808 89.4236C93.5895 88.6425 93.5895 87.3756 92.808 86.5945L86.3003 80.0898C85.5193 79.3092 84.2535 79.3092 83.4725 80.0898L80.08 83.4808ZM36.5278 80.0858C35.7467 79.305 34.4806 79.3052 33.6997 80.0861L27.1962 86.5896C26.4149 87.371 26.4152 88.638 27.1971 89.4189L30.5927 92.8105C31.374 93.5909 32.6399 93.5903 33.4206 92.8093L39.9213 86.3055C40.7022 85.5242 40.7019 84.2579 39.9207 83.477L36.5278 80.0858Z" fill="#F7D056"/>
</svg>

<svg xmlns="http://www.w3.org/2000/svg" fill="none" viewBox="0 0 120 120"><path d="M55.6 18c0-1.1.9-2 2-2h4.8a2 2 0 0 1 2 2v9.2a2 2 0 0 1-2 2h-4.8a2 2 0 0 1-2-2V18ZM16 57.58c0-1.1.9-2 2-2h9.2a2 2 0 0 1 2 2v4.8a2 2 0 0 1-2 2H18a2 2 0 0 1-2-2v-4.8Zm74.8 0c0-1.1.9-2 2-2h9.2a2 2 0 0 1 2 2v4.8a2 2 0 0 1-2 2h-9.2a2 2 0 0 1-2-2v-4.8ZM80.08 36.52a2 2 0 0 1 0-2.83l6.5-6.53a2 2 0 0 1 2.84 0l3.39 3.38a2 2 0 0 1 0 2.83l-6.5 6.5a2 2 0 0 1-2.84 0l-3.4-3.4Zm-43.55 3.4a2 2 0 0 1-2.83 0l-6.5-6.5a2 2 0 0 1 0-2.84l3.4-3.4a2 2 0 0 1 2.82.01l6.5 6.5a2 2 0 0 1 0 2.83l-3.4 3.4Z" fill="#F7D056"/><path d="M55.6 102c0 1.1.9 2 2 2h4.8a2 2 0 0 0 2-2v-9.2a2 2 0 0 0-2-2h-4.8a2 2 0 0 0-2 2v9.2ZM16 62.42c0 1.1.9 2 2 2h9.2a2 2 0 0 0 2-2v-4.8a2 2 0 0 0-2-2H18a2 2 0 0 0-2 2v4.8Zm74.8 0c0 1.1.9 2 2 2h9.2a2 2 0 0 0 2-2v-4.8a2 2 0 0 0-2-2h-9.2a2 2 0 0 0-2 2v4.8ZM80.08 83.48a2 2 0 0 0 0 2.83l6.5 6.5a2 2 0 0 0 2.84 0l3.39-3.39a2 2 0 0 0 0-2.83l-6.5-6.5a2 2 0 0 0-2.84 0l-3.4 3.4Zm-43.55-3.4a2 2 0 0 0-2.83 0l-6.5 6.5a2 2 0 0 0 0 2.84l3.4 3.4a2 2 0 0 0 2.82 0l6.5-6.5a2 2 0 0 0 0-2.83l-3.4-3.4Z" fill="#F7D056"/></svg>
